src/img/logo.svg

<svg width="112" height="48" viewBox="0 0 112 48" fill="none" xmlns="http://www.w3.org/2000/svg">
<g clip-path="url(#clip0_8205_61203)">
<path d="M12.8423 12.4138C19.4194 11.8001 25.2471 16.6382 25.854 23.2158C26.4609 29.7937 21.617 35.6161 15.0387 36.2163C8.46996 36.8159 2.65741 31.9804 2.05133 25.4121C1.44532 18.844 6.27479 13.0265 12.8423 12.4138ZM15.2272 34.9514C21.0988 34.2463 25.286 28.9129 24.5775 23.042C23.869 17.1709 18.5332 12.987 12.6625 13.6992C6.79707 14.4108 2.61779 19.7407 3.32562 25.6064C4.03353 31.4729 9.3608 35.6551 15.2272 34.9514Z" fill="#080C09"/>
<path d="M18.6304 18.0948L20.0062 18.0854C20.0329 22.0561 20.0348 26.027 20.0121 29.9977L18.5895 30.0156L18.5874 22.5549L18.5809 20.5119C17.7863 22.0199 16.8842 23.4696 16.0247 24.941C15.4799 25.8736 14.974 26.9436 14.2998 27.7822C14.139 27.841 13.9646 27.8455 13.797 27.8072C13.7422 27.7944 13.6276 27.7515 13.586 27.7183C13.2223 27.4281 9.80298 21.4214 9.25692 20.5105C9.39709 21.5906 9.30901 22.7692 9.30843 23.8596L9.30428 29.9862L7.84961 29.9913C7.89467 26.027 7.82353 22.0599 7.86156 18.0948L9.44561 18.103C10.15 19.3624 10.9056 20.5955 11.636 21.8401C12.4123 23.1627 13.1681 24.5013 13.9928 25.7943C14.8318 24.2622 15.77 22.7772 16.6719 21.2806C17.3107 20.2205 17.9146 19.1042 18.6304 18.0948Z" fill="#080C09"/>
<path d="M91.4704 20.9242C91.751 20.9053 92.0393 20.8979 92.3205 20.9029C93.3694 20.9216 94.4407 21.4824 95.1585 22.2259C96.0534 23.1524 96.4688 24.4445 96.4388 25.7191C96.4088 27.016 95.9223 28.249 94.968 29.1387C94.1217 29.9268 93.0377 30.3487 91.8782 30.3052C90.5506 30.2554 89.6704 29.6961 88.78 28.7456C88.7455 29.2896 88.7557 29.8399 88.7506 30.3851C88.7564 31.4679 88.7551 32.5507 88.7461 33.6341C88.2412 33.684 87.7324 33.6795 87.2281 33.6201C87.3105 31.9435 87.2377 30.2266 87.2383 28.5456C87.2383 26.045 87.2779 23.5378 87.2217 21.0381L88.7238 21.0323C88.6944 21.5901 88.7014 22.1536 88.6931 22.7124C89.5068 21.6968 90.1856 21.2072 91.4704 20.9242ZM92.1211 28.9636C93.0549 28.7884 93.7785 28.4075 94.3263 27.6015C94.8626 26.7993 95.055 25.8156 94.86 24.8708C94.6925 24.0289 94.194 23.2332 93.4608 22.7731C92.8836 22.4109 92.2591 22.3114 91.5925 22.3303C90.6669 22.5052 89.9165 22.8348 89.3617 23.6417C88.8388 24.4017 88.6138 25.4838 88.7903 26.3876C88.9577 27.2557 89.4723 28.0176 90.2156 28.4957C90.8082 28.8683 91.4339 28.9757 92.1211 28.9636Z" fill="#080C09"/>
<path d="M63.4415 17.1567C63.6863 17.4083 63.7624 18.0722 63.9081 18.4277C62.3318 19.0893 60.0467 18.9532 58.7792 20.164C58.0211 20.8883 57.8402 21.8898 57.8243 22.888C58.5024 22.0503 59.2458 21.3716 60.358 21.1857C61.4817 20.9978 62.6725 21.2152 63.5942 21.9011C64.5843 22.6381 65.1353 23.7066 65.3009 24.9168C65.4907 26.3077 65.1443 27.6193 64.291 28.7302C63.6729 29.4161 62.9538 29.923 62.048 30.1448C60.9013 30.426 59.5923 30.2803 58.5817 29.6532C57.4293 28.9373 56.7658 27.7561 56.4781 26.4566C56.0486 24.5148 56.133 21.6127 57.2522 19.889C58.2391 18.3685 59.7297 18.0674 61.3858 17.6735C62.0736 17.51 62.7518 17.3087 63.4415 17.1567ZM60.8208 28.9719C61.7968 28.8274 62.523 28.5935 63.1295 27.7548C63.7246 26.9328 63.917 25.8948 63.7323 24.9066C63.5834 24.1092 63.1634 23.3798 62.4789 22.9285C62.0595 22.6513 61.5731 22.4924 61.0707 22.4687C60.1209 22.5748 59.3398 22.7716 58.7076 23.5549C58.1145 24.2904 57.8607 25.2837 57.9917 26.2157C58.1113 27.0658 58.576 27.884 59.274 28.3908C59.7463 28.7334 60.2532 28.8837 60.8208 28.9719Z" fill="#080C09"/>
<path d="M42.0841 17.7615C42.639 17.7059 43.2163 17.7325 43.7744 17.7286C43.6991 21.8143 43.789 25.9119 43.7655 29.9995L42.2942 29.9848L42.2965 22.7572C42.2924 21.9291 42.2752 21.0993 42.3259 20.2724C40.9699 22.7768 39.7465 25.3909 38.2614 27.8192L37.3053 27.8141C35.8425 25.4158 34.6251 22.8316 33.2724 20.3672C33.3253 21.4973 33.2895 22.6449 33.2903 23.7768L33.2935 30.0001C32.803 29.9873 32.3144 30.0193 31.8233 29.9963L31.824 22.5514C31.825 20.9511 31.7937 19.3407 31.8814 17.7426L33.5184 17.7434C33.9837 18.5413 34.3792 19.3962 34.8019 20.2181C35.7827 22.1246 36.7535 24.0518 37.8116 25.9163C39.3666 23.2797 40.5976 20.4396 42.0841 17.7615Z" fill="#080C09"/>
<path d="M49.6516 20.9272C49.8761 20.9152 50.1008 20.9067 50.3257 20.9017C51.5036 20.8824 52.6774 21.2038 53.5266 22.0574C54.6626 23.1992 54.7757 24.6382 54.7759 26.1588C52.3239 26.1902 49.8685 26.1569 47.416 26.1678C47.4916 26.5724 47.5677 26.9597 47.7603 27.3292C48.1436 28.0681 48.8088 28.621 49.6053 28.8626C50.5587 29.1515 51.5176 28.9822 52.3752 28.5092C52.6629 28.3136 52.926 28.0847 53.1938 27.8636C53.5787 28.0835 53.9682 28.2669 54.375 28.4427C53.7699 29.2589 52.9899 29.854 52.0026 30.1244C50.7386 30.4702 49.1981 30.3347 48.0595 29.6648C47.0611 29.0761 46.3448 28.1071 46.0752 26.9802C45.7388 25.6251 45.9267 24.143 46.6619 22.9511C47.3707 21.8022 48.3652 21.2345 49.6516 20.9272ZM47.4317 25.0134C48.6462 25.0038 49.8608 25 51.0754 25.0032L53.3456 25.0045C53.1243 24.0728 52.9024 23.2091 52.0354 22.6637C51.4011 22.2646 50.6319 22.2038 49.9018 22.2646C49.1134 22.4467 48.4489 22.8055 47.9989 23.5004C47.6943 23.9709 47.5592 24.4765 47.4317 25.0134Z" fill="#080C09"/>
<path d="M80.1542 20.9242C80.3747 20.9132 80.5946 20.9059 80.8151 20.9022C81.99 20.8895 83.1642 21.238 84.0028 22.0952C85.106 23.2236 85.2077 24.6635 85.2025 26.1528C82.7608 26.1899 80.3134 26.1605 77.8704 26.1662C77.903 26.6118 77.981 26.9953 78.1893 27.396C78.5741 28.1381 79.2127 28.629 80.0098 28.8624C81.0759 29.1756 82.0462 28.9442 82.9884 28.4213C83.2185 28.2628 83.423 28.0691 83.632 27.8837C84.0194 28.0921 84.4119 28.2609 84.8197 28.4232C84.1811 29.2625 83.3866 29.871 82.3549 30.1324C81.0721 30.4578 79.5994 30.3331 78.4546 29.6422C77.4383 29.0285 76.7416 28.0173 76.4744 26.8655C76.1695 25.5501 76.3824 24.0371 77.1174 22.8967C77.8525 21.7565 78.8579 21.2047 80.1542 20.9242ZM77.857 25.0099C79.0196 25.0068 80.1836 24.9908 81.3463 25.0029L83.8104 25.0016C83.5547 24.0437 83.2869 23.1103 82.3601 22.5834C81.7861 22.2567 81.0868 22.201 80.4387 22.2665C79.6697 22.3938 79.0196 22.6831 78.5422 23.3259C78.1638 23.8351 78.0027 24.404 77.857 25.0099Z" fill="#080C09"/>
<path d="M105.513 21.0537C107 20.9839 108.509 21.0345 109.999 21.0392C109.923 24.0173 109.991 27.0154 109.99 29.9959L108.457 29.9793L108.456 26.9195C107.724 26.915 106.76 26.7719 106.062 26.938C105.844 26.9898 105.805 27.0998 105.683 27.2692C105.166 28.1864 104.591 29.0717 104.072 29.9896C103.493 30.0023 102.913 30.0042 102.334 29.994C102.901 28.9298 103.671 27.5753 104.421 26.6536C104.331 26.6101 104.243 26.5641 104.156 26.5168C103.502 26.1557 103.001 25.5747 102.81 24.846C102.61 24.0864 102.719 23.2194 103.125 22.5449C103.673 21.6349 104.531 21.2851 105.513 21.0537ZM107.084 25.6354C107.536 25.6315 107.998 25.6456 108.449 25.613C108.443 24.5539 108.446 23.4947 108.457 22.4356C107.559 22.4323 106.648 22.4082 105.75 22.4575C105.184 22.6348 104.742 22.8262 104.436 23.372C104.234 23.7347 104.179 24.2134 104.316 24.6076C104.448 24.9892 104.755 25.257 105.115 25.42C105.724 25.6948 106.432 25.6411 107.084 25.6354Z" fill="#080C09"/>
<path d="M68.4119 21.1356C70.3525 21.0656 72.3097 21.111 74.2522 21.1074L74.2432 29.9945C73.7594 29.9875 73.2736 29.967 72.7936 30.0328L72.7865 22.5048L71.9632 22.538C71.2282 22.5017 70.4771 22.5501 69.7408 22.5674C69.7203 24.3588 69.7133 28.0725 68.4586 29.3981C67.8328 30.0591 67.1259 30.1268 66.2713 30.1338C66.2649 29.6666 66.2399 29.2051 66.2061 28.7391C66.4291 28.7187 66.6656 28.7033 66.883 28.6484C68.2336 28.3077 68.2572 23.8448 68.2911 22.7195C68.3045 22.281 68.2074 21.4926 68.4119 21.1356Z" fill="#080C09"/>
<path d="M99.8876 21.0698L100.086 21.0581C100.11 21.0904 100.144 21.1173 100.159 21.1549C100.225 21.3298 100.157 29.0932 100.157 29.9906L98.856 29.9995L98.7601 29.9804C98.5517 29.6039 98.7607 22.2058 98.6955 21.0875C99.0931 21.0924 99.4907 21.0791 99.8876 21.0698Z" fill="#080C09"/>
<path d="M98.6682 17.7183L100.165 17.7139C100.149 18.2451 100.161 18.7768 100.169 19.3081L98.6279 19.3197C98.6503 18.7862 98.6637 18.2523 98.6682 17.7183Z" fill="#080C09"/>
</g>
<defs>
<clipPath id="clip0_8205_61203">
<rect width="108" height="23.9052" fill="white" transform="translate(2 12.3613)"/>
</clipPath>
</defs>
</svg>

<svg xmlns="http://www.w3.org/2000/svg" width="112" height="48" fill="none"> <g fill="#FFFFFF"  clip-path="url(#a)"><path d="M12.842 12.414c6.577-.614 12.405 4.224 13.012 10.802s-4.237 12.4-10.815 13c-6.569.6-12.382-4.236-12.988-10.804s4.224-12.385 10.791-12.998m2.385 22.537c5.872-.705 10.059-6.038 9.35-11.909s-6.044-10.055-11.915-9.343c-5.865.712-10.044 6.042-9.336 11.907.708 5.867 6.035 10.05 11.901 9.345"/><path d="m18.63 18.095 1.376-.01q.04 5.956.006 11.913l-1.422.018-.003-7.461-.006-2.043c-.795 1.508-1.697 2.958-2.556 4.429-.545.933-1.051 2.003-1.725 2.841a.9.9 0 0 1-.503.025.7.7 0 0 1-.211-.089c-.364-.29-3.783-6.297-4.33-7.207.141 1.08.053 2.258.052 3.349l-.004 6.126-1.454.005c.045-3.964-.026-7.931.012-11.896l1.584.008c.704 1.26 1.46 2.492 2.19 3.737.776 1.323 1.532 2.661 2.357 3.954.839-1.532 1.777-3.017 2.679-4.513.639-1.06 1.243-2.177 1.958-3.186M91.47 20.924c.281-.019.57-.026.85-.021 1.05.019 2.12.58 2.839 1.323.894.926 1.31 2.219 1.28 3.493-.03 1.297-.517 2.53-1.471 3.42a4.26 4.26 0 0 1-3.09 1.166c-1.327-.05-2.208-.609-3.098-1.56-.034.545-.024 1.095-.03 1.64q.01 1.624-.004 3.25a7 7 0 0 1-1.518-.015c.083-1.676.01-3.393.01-5.074 0-2.501.04-5.008-.016-7.508l1.502-.006c-.03.558-.023 1.122-.03 1.68.813-1.015 1.492-1.505 2.776-1.788m.651 8.04c.934-.176 1.657-.556 2.205-1.362a3.6 3.6 0 0 0 .534-2.731c-.168-.842-.666-1.638-1.4-2.098-.576-.362-1.2-.462-1.867-.443-.926.175-1.677.505-2.231 1.312-.523.76-.748 1.842-.572 2.746.168.868.682 1.63 1.426 2.108.592.372 1.218.48 1.905.468M63.442 17.157c.244.251.32.915.466 1.27-1.576.662-3.861.526-5.129 1.737-.758.724-.939 1.726-.955 2.724.678-.838 1.422-1.516 2.534-1.702 1.124-.188 2.315.03 3.236.715.99.737 1.541 1.806 1.707 3.016a5 5 0 0 1-1.01 3.813c-.618.686-1.337 1.193-2.243 1.415-1.147.281-2.456.135-3.466-.492-1.153-.716-1.816-1.897-2.104-3.196-.43-1.942-.345-4.844.774-6.568.987-1.52 2.478-1.822 4.134-2.215.688-.164 1.366-.365 2.055-.517M60.82 28.972c.976-.145 1.702-.379 2.309-1.217.595-.822.787-1.86.602-2.848-.149-.798-.569-1.527-1.253-1.979a2.8 2.8 0 0 0-1.408-.46c-.95.107-1.731.304-2.363 1.087-.593.735-.847 1.729-.716 2.66.12.85.584 1.669 1.282 2.176.472.342.98.493 1.547.58M42.084 17.762c.555-.056 1.132-.03 1.69-.033-.075 4.085.015 8.183-.008 12.27l-1.472-.014.003-7.228c-.005-.828-.022-1.658.029-2.485-1.356 2.505-2.58 5.119-4.065 7.547l-.956-.005c-1.462-2.398-2.68-4.982-4.033-7.447.053 1.13.017 2.278.018 3.41L33.294 30c-.491-.013-.98.02-1.47-.004v-7.445c.001-1.6-.03-3.21.057-4.808h1.637c.466.798.861 1.653 1.284 2.475.98 1.907 1.952 3.834 3.01 5.698 1.555-2.636 2.786-5.476 4.272-8.154M49.652 20.927q.336-.018.674-.025c1.178-.02 2.351.302 3.2 1.155 1.137 1.142 1.25 2.581 1.25 4.102-2.452.031-4.908-.002-7.36.009.076.404.152.792.344 1.161a3.09 3.09 0 0 0 1.845 1.534c.954.288 1.913.12 2.77-.354.288-.195.551-.424.819-.645.385.22.774.403 1.181.579-.605.816-1.385 1.411-2.372 1.681-1.264.346-2.805.21-3.943-.46a4.27 4.27 0 0 1-1.985-2.684c-.336-1.355-.148-2.837.587-4.029.709-1.149 1.703-1.716 2.99-2.024m-2.22 4.086q1.821-.015 3.643-.01l2.27.002c-.22-.932-.443-1.796-1.31-2.341-.634-.4-1.403-.46-2.133-.4-.789.183-1.453.541-1.903 1.236-.305.47-.44.977-.567 1.513M80.154 20.924q.33-.016.661-.022c1.175-.012 2.35.336 3.188 1.193 1.103 1.129 1.205 2.569 1.2 4.058-2.442.037-4.89.008-7.333.013.033.446.111.83.32 1.23.384.742 1.023 1.233 1.82 1.466 1.066.314 2.036.082 2.978-.44.23-.16.435-.353.644-.538.387.208.78.377 1.188.54-.639.838-1.433 1.447-2.465 1.708-1.283.326-2.756.201-3.9-.49-1.017-.613-1.713-1.625-1.98-2.776-.305-1.316-.093-2.829.642-3.97.736-1.14 1.74-1.691 3.037-1.972m-2.297 4.086c1.163-.003 2.327-.02 3.49-.007l2.463-.001c-.255-.958-.523-1.892-1.45-2.419-.574-.326-1.273-.382-1.921-.316-.77.127-1.42.416-1.897 1.059-.378.51-.54 1.078-.685 1.684M105.513 21.054c1.487-.07 2.996-.02 4.486-.015-.076 2.978-.008 5.976-.009 8.957l-1.533-.017-.001-3.06c-.732-.004-1.696-.147-2.394.019-.218.052-.257.162-.379.331-.517.917-1.092 1.803-1.611 2.72q-.869.02-1.738.005c.567-1.064 1.337-2.419 2.087-3.34a6 6 0 0 1-.265-.137c-.654-.361-1.155-.942-1.346-1.671-.2-.76-.091-1.627.315-2.301.548-.91 1.406-1.26 2.388-1.491m1.571 4.581c.452-.004.914.01 1.365-.022q-.009-1.59.008-3.177c-.898-.004-1.809-.028-2.707.021-.566.178-1.008.37-1.314.915a1.57 1.57 0 0 0-.12 1.236c.132.381.439.649.799.812.609.275 1.317.221 1.969.215M68.412 21.136c1.94-.07 3.898-.025 5.84-.029l-.009 8.888c-.484-.008-.97-.028-1.45.038l-.007-7.528-.823.033c-.735-.036-1.486.012-2.222.03-.02 1.79-.028 5.505-1.282 6.83-.626.661-1.333.729-2.188.736a24 24 0 0 0-.065-1.395c.223-.02.46-.036.677-.09 1.35-.341 1.374-4.804 1.408-5.93.014-.438-.084-1.226.12-1.583M99.888 21.07l.198-.012c.024.032.058.06.073.097.066.175-.002 7.938-.002 8.836L98.856 30l-.096-.02c-.208-.376 0-7.774-.065-8.893.398.005.796-.008 1.193-.017M98.668 17.718l1.497-.004c-.016.531-.004 1.063.004 1.594l-1.541.012a48 48 0 0 0 .04-1.602"/></g><defs><clipPath id="a"><path  d="M2 12.361h108v23.905H2z"/></clipPath></defs></svg>
